X: 1
T: Delia Crowley's
M: 4/4
L: 1/8
R: reel
K: Emix
c2BA GE~E2|GEBA GEGB|ceBA GEEA|~F3D FGAe|
ceBA GE~E2|GEBA GEGB|ceBA GEEA|~F3D FGAc|
K:Emaj
BeeB ebge|(3fga fe d~B3|edeg bgeb|fafe f2 (3Bcd|
efga bgeg|(3fga fe d~B3|~c3B cdef|gbaf geec|
